img/Stars.svg

<svg width="48" height="8" viewBox="0 0 48 8" fill="none" xmlns="http://www.w3.org/2000/svg">
<path fill-rule="evenodd" clip-rule="evenodd" d="M3.99993 0.333328C4.1268 0.333328 4.24267 0.405352 4.29883 0.51912L5.25135 2.44882L7.38147 2.76017C7.50699 2.77851 7.61122 2.86652 7.65034 2.98718C7.68947 3.10785 7.65671 3.24027 7.56584 3.32878L6.02477 4.82978L6.38846 6.95031C6.40991 7.07538 6.3585 7.20177 6.25584 7.27635C6.15318 7.35092 6.01708 7.36075 5.90478 7.30169L3.99993 6.29994L2.09508 7.30169C1.98277 7.36075 1.84668 7.35092 1.74402 7.27635C1.64136 7.20177 1.58994 7.07538 1.61139 6.95031L1.97509 4.82978L0.434017 3.32878C0.343145 3.24027 0.310387 3.10785 0.349513 2.98718C0.388639 2.86652 0.492866 2.77851 0.618386 2.76017L2.74851 2.44882L3.70103 0.51912C3.75718 0.405352 3.87306 0.333328 3.99993 0.333328ZM3.99993 1.41975L3.26883 2.90087C3.22032 2.99915 3.12659 3.06731 3.01814 3.08316L1.38273 3.3222L2.56584 4.47454C2.64446 4.55112 2.68035 4.6615 2.6618 4.76968L2.38265 6.39722L3.84478 5.6283C3.94191 5.57723 4.05795 5.57723 4.15508 5.6283L5.6172 6.39722L5.33806 4.76968C5.31951 4.6615 5.35539 4.55112 5.43402 4.47454L6.61712 3.3222L4.98172 3.08316C4.87327 3.06731 4.77954 2.99915 4.73103 2.90087L3.99993 1.41975Z" fill="#F2994A"/>
<path d="M2.33333 5L1 3L3 2.66667L4 1L5 2.66667L7 3.33333L5.66667 4.66667L6 7L4 6L2 7L2.33333 5Z" fill="#F2994A"/>
<path fill-rule="evenodd" clip-rule="evenodd" d="M13.9999 0.333328C14.1268 0.333328 14.2427 0.405352 14.2988 0.51912L15.2513 2.44882L17.3815 2.76017C17.507 2.77851 17.6112 2.86652 17.6503 2.98718C17.6895 3.10785 17.6567 3.24027 17.5658 3.32878L16.0248 4.82978L16.3885 6.95031C16.4099 7.07538 16.3585 7.20177 16.2558 7.27635C16.1532 7.35092 16.0171 7.36075 15.9048 7.30169L13.9999 6.29994L12.0951 7.30169C11.9828 7.36075 11.8467 7.35092 11.744 7.27635C11.6414 7.20177 11.5899 7.07538 11.6114 6.95031L11.9751 4.82978L10.434 3.32878C10.3431 3.24027 10.3104 3.10785 10.3495 2.98718C10.3886 2.86652 10.4929 2.77851 10.6184 2.76017L12.7485 2.44882L13.701 0.51912C13.7572 0.405352 13.8731 0.333328 13.9999 0.333328ZM13.9999 1.41975L13.2688 2.90087C13.2203 2.99915 13.1266 3.06731 13.0181 3.08316L11.3827 3.3222L12.5658 4.47454C12.6445 4.55112 12.6804 4.6615 12.6618 4.76968L12.3827 6.39722L13.8448 5.6283C13.9419 5.57723 14.058 5.57723 14.1551 5.6283L15.6172 6.39722L15.3381 4.76968C15.3195 4.6615 15.3554 4.55112 15.434 4.47454L16.6171 3.3222L14.9817 3.08316C14.8733 3.06731 14.7795 2.99915 14.731 2.90087L13.9999 1.41975Z" fill="#F2994A"/>
<path d="M12.3333 5L11 3L13 2.66667L14 1L15 2.66667L17 3.33333L15.6667 4.66667L16 7L14 6L12 7L12.3333 5Z" fill="#F2994A"/>
<path fill-rule="evenodd" clip-rule="evenodd" d="M23.9999 0.333328C24.1268 0.333328 24.2427 0.405352 24.2988 0.51912L25.2513 2.44882L27.3815 2.76017C27.507 2.77851 27.6112 2.86652 27.6503 2.98718C27.6895 3.10785 27.6567 3.24027 27.5658 3.32878L26.0248 4.82978L26.3885 6.95031C26.4099 7.07538 26.3585 7.20177 26.2558 7.27635C26.1532 7.35092 26.0171 7.36075 25.9048 7.30169L23.9999 6.29994L22.0951 7.30169C21.9828 7.36075 21.8467 7.35092 21.744 7.27635C21.6414 7.20177 21.5899 7.07538 21.6114 6.95031L21.9751 4.82978L20.434 3.32878C20.3431 3.24027 20.3104 3.10785 20.3495 2.98718C20.3886 2.86652 20.4929 2.77851 20.6184 2.76017L22.7485 2.44882L23.701 0.51912C23.7572 0.405352 23.8731 0.333328 23.9999 0.333328ZM23.9999 1.41975L23.2688 2.90087C23.2203 2.99915 23.1266 3.06731 23.0181 3.08316L21.3827 3.3222L22.5658 4.47454C22.6445 4.55112 22.6804 4.6615 22.6618 4.76968L22.3827 6.39722L23.8448 5.6283C23.9419 5.57723 24.058 5.57723 24.1551 5.6283L25.6172 6.39722L25.3381 4.76968C25.3195 4.6615 25.3554 4.55112 25.434 4.47454L26.6171 3.3222L24.9817 3.08316C24.8733 3.06731 24.7795 2.99915 24.731 2.90087L23.9999 1.41975Z" fill="#F2994A"/>
<path d="M22.3333 5L21 3L23 2.66667L24 1L25 2.66667L27 3.33333L25.6667 4.66667L26 7L24 6L22 7L22.3333 5Z" fill="#F2994A"/>
<path fill-rule="evenodd" clip-rule="evenodd" d="M33.9999 0.333328C34.1268 0.333328 34.2427 0.405352 34.2988 0.51912L35.2513 2.44882L37.3815 2.76017C37.507 2.77851 37.6112 2.86652 37.6503 2.98718C37.6895 3.10785 37.6567 3.24027 37.5658 3.32878L36.0248 4.82978L36.3885 6.95031C36.4099 7.07538 36.3585 7.20177 36.2558 7.27635C36.1532 7.35092 36.0171 7.36075 35.9048 7.30169L33.9999 6.29994L32.0951 7.30169C31.9828 7.36075 31.8467 7.35092 31.744 7.27635C31.6414 7.20177 31.5899 7.07538 31.6114 6.95031L31.9751 4.82978L30.434 3.32878C30.3431 3.24027 30.3104 3.10785 30.3495 2.98718C30.3886 2.86652 30.4929 2.77851 30.6184 2.76017L32.7485 2.44882L33.701 0.51912C33.7572 0.405352 33.8731 0.333328 33.9999 0.333328ZM33.9999 1.41975L33.2688 2.90087C33.2203 2.99915 33.1266 3.06731 33.0181 3.08316L31.3827 3.3222L32.5658 4.47454C32.6445 4.55112 32.6804 4.6615 32.6618 4.76968L32.3827 6.39722L33.8448 5.6283C33.9419 5.57723 34.058 5.57723 34.1551 5.6283L35.6172 6.39722L35.3381 4.76968C35.3195 4.6615 35.3554 4.55112 35.434 4.47454L36.6171 3.3222L34.9817 3.08316C34.8733 3.06731 34.7795 2.99915 34.731 2.90087L33.9999 1.41975Z" fill="#F2994A"/>
<path d="M32.3333 5L31 3L33 2.66667L34 1L35 2.66667L37 3.33333L35.6667 4.66667L36 7L34 6L32 7L32.3333 5Z" fill="#F2994A"/>
<path fill-rule="evenodd" clip-rule="evenodd" d="M43.9999 0.333328C44.1268 0.333328 44.2427 0.405352 44.2988 0.51912L45.2513 2.44882L47.3815 2.76017C47.507 2.77851 47.6112 2.86652 47.6503 2.98718C47.6895 3.10785 47.6567 3.24027 47.5658 3.32878L46.0248 4.82978L46.3885 6.95031C46.4099 7.07538 46.3585 7.20177 46.2558 7.27635C46.1532 7.35092 46.0171 7.36075 45.9048 7.30169L43.9999 6.29994L42.0951 7.30169C41.9828 7.36075 41.8467 7.35092 41.744 7.27635C41.6414 7.20177 41.5899 7.07538 41.6114 6.95031L41.9751 4.82978L40.434 3.32878C40.3431 3.24027 40.3104 3.10785 40.3495 2.98718C40.3886 2.86652 40.4929 2.77851 40.6184 2.76017L42.7485 2.44882L43.701 0.51912C43.7572 0.405352 43.8731 0.333328 43.9999 0.333328ZM43.9999 1.41975L43.2688 2.90087C43.2203 2.99915 43.1266 3.06731 43.0181 3.08316L41.3827 3.3222L42.5658 4.47454C42.6445 4.55112 42.6804 4.6615 42.6618 4.76968L42.3827 6.39722L43.8448 5.6283C43.9419 5.57723 44.058 5.57723 44.1551 5.6283L45.6172 6.39722L45.3381 4.76968C45.3195 4.6615 45.3554 4.55112 45.434 4.47454L46.6171 3.3222L44.9817 3.08316C44.8733 3.06731 44.7795 2.99915 44.731 2.90087L43.9999 1.41975Z" fill="#F2994A"/>
<path d="M42.3333 5L41 3L43 2.66667L44 1L45 2.66667L47 3.33333L45.6667 4.66667L46 7L44 6L42 7L42.3333 5Z" fill="#F2994A"/>
</svg>

<svg width="48" height="8" fill="none" xmlns="http://www.w3.org/2000/svg"><path fill-rule="evenodd" clip-rule="evenodd" d="M4 .333c.127 0 .243.072.299.186l.952 1.93 2.13.311a.333.333 0 0 1 .185.569l-1.541 1.5.363 2.121a.333.333 0 0 1-.483.352L4 6.3 2.095 7.302a.333.333 0 0 1-.484-.352l.364-2.12L.434 3.329a.333.333 0 0 1 .184-.569l2.13-.311.953-1.93A.333.333 0 0 1 4 .333zM4 1.42 3.269 2.9a.333.333 0 0 1-.25.183l-1.636.24 1.183 1.152a.333.333 0 0 1 .096.295l-.28 1.627 1.463-.769a.333.333 0 0 1 .31 0l1.462.77-.279-1.628a.333.333 0 0 1 .096-.295l1.183-1.153-1.635-.239a.333.333 0 0 1-.251-.182L4 1.42z" fill="#F2994A"/><path d="M2.333 5 1 3l2-.333L4 1l1 1.667 2 .666-1.333 1.334L6 7 4 6 2 7l.333-2z" fill="#F2994A"/><path fill-rule="evenodd" clip-rule="evenodd" d="M14 .333c.127 0 .243.072.299.186l.952 1.93 2.13.311a.333.333 0 0 1 .185.569l-1.541 1.5.364 2.121a.333.333 0 0 1-.484.352L14 6.3l-1.905 1.002a.333.333 0 0 1-.484-.352l.364-2.12-1.541-1.501a.333.333 0 0 1 .184-.569l2.13-.311.953-1.93A.333.333 0 0 1 14 .333zm0 1.087-.731 1.48a.333.333 0 0 1-.25.183l-1.636.24 1.183 1.152a.333.333 0 0 1 .096.295l-.28 1.627 1.463-.769a.333.333 0 0 1 .31 0l1.462.77-.279-1.628a.333.333 0 0 1 .096-.295l1.183-1.153-1.635-.239a.333.333 0 0 1-.251-.182L14 1.42z" fill="#F2994A"/><path d="M12.333 5 11 3l2-.333L14 1l1 1.667 2 .666-1.333 1.334L16 7l-2-1-2 1 .333-2z" fill="#F2994A"/><path fill-rule="evenodd" clip-rule="evenodd" d="M24 .333c.127 0 .243.072.299.186l.952 1.93 2.13.311a.333.333 0 0 1 .185.569l-1.541 1.5.364 2.121a.333.333 0 0 1-.484.352L24 6.3l-1.905 1.002a.333.333 0 0 1-.484-.352l.364-2.12-1.541-1.501a.333.333 0 0 1 .184-.569l2.13-.311.953-1.93A.333.333 0 0 1 24 .333zm0 1.087-.731 1.48a.333.333 0 0 1-.25.183l-1.636.24 1.183 1.152a.333.333 0 0 1 .096.295l-.28 1.627 1.463-.769a.333.333 0 0 1 .31 0l1.462.77-.279-1.628a.333.333 0 0 1 .096-.295l1.183-1.153-1.635-.239a.333.333 0 0 1-.251-.182L24 1.42z" fill="#F2994A"/><path d="M22.333 5 21 3l2-.333L24 1l1 1.667 2 .666-1.333 1.334L26 7l-2-1-2 1 .333-2z" fill="#F2994A"/><path fill-rule="evenodd" clip-rule="evenodd" d="M34 .333c.127 0 .243.072.299.186l.952 1.93 2.13.311a.333.333 0 0 1 .185.569l-1.541 1.5.364 2.121a.333.333 0 0 1-.484.352L34 6.3l-1.905 1.002a.333.333 0 0 1-.484-.352l.364-2.12-1.541-1.501a.333.333 0 0 1 .184-.569l2.13-.311.953-1.93A.333.333 0 0 1 34 .333zm0 1.087-.731 1.48a.333.333 0 0 1-.25.183l-1.636.24 1.183 1.152a.333.333 0 0 1 .096.295l-.28 1.627 1.463-.769a.333.333 0 0 1 .31 0l1.462.77-.279-1.628a.333.333 0 0 1 .096-.295l1.183-1.153-1.635-.239a.333.333 0 0 1-.251-.182L34 1.42z" fill="#F2994A"/><path d="M32.333 5 31 3l2-.333L34 1l1 1.667 2 .666-1.333 1.334L36 7l-2-1-2 1 .333-2z" fill="#F2994A"/><path fill-rule="evenodd" clip-rule="evenodd" d="M44 .333c.127 0 .243.072.299.186l.952 1.93 2.13.311a.333.333 0 0 1 .185.569l-1.541 1.5.364 2.121a.333.333 0 0 1-.484.352L44 6.3l-1.905 1.002a.333.333 0 0 1-.484-.352l.364-2.12-1.541-1.501a.333.333 0 0 1 .184-.569l2.13-.311.953-1.93A.333.333 0 0 1 44 .333zm0 1.087-.731 1.48a.333.333 0 0 1-.25.183l-1.636.24 1.183 1.152a.333.333 0 0 1 .096.295l-.28 1.627 1.463-.769a.333.333 0 0 1 .31 0l1.462.77-.279-1.628a.333.333 0 0 1 .096-.295l1.183-1.153-1.635-.239a.333.333 0 0 1-.251-.182L44 1.42z" fill="#F2994A"/><path d="M42.333 5 41 3l2-.333L44 1l1 1.667 2 .666-1.333 1.334L46 7l-2-1-2 1 .333-2z" fill="#F2994A"/></svg>
